X: 112
T:Princes Hornpipe.  GS.112
T:Fisher's Hp,aka. GS.112
T:Egg Hp,aka. GS.112
M:2/2
L:1/8
Q:160
S:George Spencer m/s, Leeds,1831
R:Hornpipe
O:England
A:Leeds
N:Title written in large ornate letters on the last line of the page.
N:Rather better handwriting than the title at the top of the page
H:1831
Z:vmp.Cherri Graebe
K:D major
(fg) | afge dfed | cdec ABAG | FGef gfed | c2 AA A2 (fg) | afge dfed |
cdec ABAG | FGef gedc | d2 dd d2 :||: (cd) | eAAA eAfA | eAAA fdfa |
gfed dcBA | B2 BB B2 (AG) | FAdB cdec | defd efge | fgaf bgec | d2 dd d2
 :||
